X:99
T:Katushka, aka Ukranian Love Song
R:reel
C:Trad
S:From John Matuchek Cymbolum player via Paul Goelz
S:Jim Coon to CoMandoList TOW
M:2/4
L:1/8
Q:1/4=130
K:Am
|:"Am" .AA2 B|c2 A3/2A/|\
Ac BA|"E7"B^GE2|!
"E7".BB2c|d2 B3/2B/|\
Bd cB|"Am"A2- A2:|!
"Am".e2.a2|"G".g2.a2|\
"Dm"zf ed|"Am"e2A2|!
"Dm"zd2B|"Am"c2A3/2A/|\
"E7"Bd cB|"Am"A2- A2:|!
